X: 1
T: Atholl Highlanders, The
M: 6/8
L: 1/8
R: jig
K:Gmaj
|:d2d dBG|dBG ABc|d2d dBG|ABc BAG|
d2d dBG|dBG ABc|dgd edc|BcA G3:|
GBd GBd|Gce Gce|GBd GBd|ABc B2A|
GBd GBd|Gce Gce|dgd edc|BcA G3:|
|:g2g gdB|g2g gdB|g2g gdB|ABc BAG|
g2g gdB|g2g gdB|dgd edc|BcA G3:|
B2B BAG|c2c edc|B2B BAG|=F2=F AG=F|
B2B BAG|c2c edc|dgd edc|BcA G3:|
